X:21
T:Comme un souffle fragile - U45
C:G. de Courrges
M:3/4
L:1/4
K:Dm
D/F/|"Rem"AAA|"Solm"AG/z/ G/F/|"La"EGG|"Rem"GF/z/ F/E/|"Sib"DFF|"Solm"FEE/D/|"La"^CEE|
"Rem"ED||D/F/|"Rem"Acc|"Solm"cBB/A/|"Do"GBB|"Fa"A3/z/A/G/|"Sib"FAA|"Solm"AGG/F/|"La"EGG|\
"Rem"A2||
